icons/svg/calculator.svg

﻿<?xml version="1.0" encoding="utf-8"?>
<!DOCTYPE svg PUBLIC "-//W3C//DTD SVG 1.1//EN" "http://www.w3.org/Graphics/SVG/1.1/DTD/svg11.dtd">
<svg xmlns="http://www.w3.org/2000/svg" xmlns:xlink="http://www.w3.org/1999/xlink" version="1.1" baseProfile="full" width="24" height="24" viewBox="0 0 24.00 24.00" enable-background="new 0 0 24.00 24.00" xml:space="preserve">
	<path fill="#000000" fill-opacity="1" stroke-width="0.2" stroke-linejoin="round" d="M 6.99999,2.00002L 17,2.00002C 18.1046,2.00002 19,2.89545 19,4.00002L 19,20C 19,21.1046 18.1046,22 17,22L 6.99999,22C 5.89543,22 5,21.1046 5,20L 5,4.00002C 5,2.89545 5.89543,2.00002 6.99999,2.00002 Z M 6.99999,4.00002L 6.99999,8.00003L 17,8.00003L 17,4.00002L 6.99999,4.00002 Z M 6.99999,10L 6.99999,12L 8.99999,12L 8.99999,10L 6.99999,10 Z M 11,10L 11,12L 13,12L 13,10L 11,10 Z M 15,10L 15,12L 17,12L 17,10L 15,10 Z M 6.99999,14L 6.99999,16L 9,16L 9,14L 6.99999,14 Z M 11,14L 11,16L 13,16L 13,14L 11,14 Z M 15,14L 15,16L 17,16L 17,14L 15,14 Z M 7,18L 7,20L 9,20L 9,18L 7,18 Z M 11,18L 11,20L 13,20L 13,18L 11,18 Z M 15,18L 15,20L 17,20L 17,18L 15,18 Z "/>
</svg>

<svg xmlns="http://www.w3.org/2000/svg" version="1.1" baseProfile="full" width="24" height="24" viewBox="0 0 24.00 24.00" xml:space="preserve"><path fill="#000" fill-opacity="1" stroke-width=".2" stroke-linejoin="round" d="M7 2h10c1.105 0 2 .895 2 2v16c0 1.105-.895 2-2 2H7c-1.105 0-2-.895-2-2V4c0-1.105.895-2 2-2zm0 2v4h10V4H7zm0 6v2h2v-2H7zm4 0v2h2v-2h-2zm4 0v2h2v-2h-2zm-8 4v2h2v-2H7zm4 0v2h2v-2h-2zm4 0v2h2v-2h-2zm-8 4v2h2v-2H7zm4 0v2h2v-2h-2zm4 0v2h2v-2h-2z"/></svg>
